X:295
T: Merrily Kiss the Quaker (Kerry setting)
S: "Treoir"
Z: B.Black
M: 12/8
L: 1/8
R: slide
K: G
D | GAB D2 D B3 AGE | G2 E DEG ABA AGE |
GAB D2 D B3 AGE | GAB DBA G3 G2 :|
D | G2 B d3 edB d2 B | G2 B d2 B ABA AGE |
G2 B d3 edB d2 B | GAB DBA G3 G2 :|
D | G2 B d2 e dBd g2 e | dBA GBd e2 f g2 g |
ged BAB A2 G EDE | GAB DBA G3 G2 :|
